images/logo--primary.svg

<svg width="163" height="40" viewBox="0 0 163 40" fill="none" xmlns="http://www.w3.org/2000/svg">
<path d="M57.2658 12.2498V14.365L55.3861 14.7255V23.8589C55.3861 25.0126 55.6954 25.8779 56.3139 26.4548C56.9405 27.0236 57.796 27.308 58.8805 27.308C59.981 27.308 60.8445 27.0236 61.4711 26.4548C62.0977 25.8859 62.411 25.0207 62.411 23.8589V14.7255L60.5433 14.365V12.2498H67.8091V14.365L65.9294 14.7255V23.8589C65.9294 25.8218 65.2787 27.3361 63.9774 28.4016C62.6841 29.4672 60.9851 30 58.8805 30C56.7839 30 55.0889 29.4672 53.7956 28.4016C52.5103 27.3361 51.8677 25.8218 51.8677 23.8589V14.7255L50 14.365V12.2498H57.2658Z" fill="white"/>
<path d="M68.749 27.6445L70.4359 27.284V19.2201L68.5682 18.8596V16.7445H73.7134L73.87 18.6072C74.3038 17.9422 74.838 17.4255 75.4726 17.0569C76.1072 16.6884 76.8181 16.5041 77.6054 16.5041C78.9228 16.5041 79.951 16.9167 80.69 17.7419C81.4291 18.5672 81.7986 19.8611 81.7986 21.6237V27.284L83.4855 27.6445V29.7476H76.7619V27.6445L78.2681 27.284V21.6357C78.2681 20.7624 78.0913 20.1455 77.7379 19.7849C77.3844 19.4164 76.8503 19.2321 76.1353 19.2321C75.6694 19.2321 75.2517 19.3283 74.8822 19.5206C74.5127 19.7048 74.2034 19.9692 73.9544 20.3137V27.284L75.3762 27.6445V29.7476H68.749V27.6445Z" fill="white"/>
<path d="M84.4977 27.6445L86.1966 27.284V19.2201L84.3169 18.8596V16.7445H89.7151V27.284L91.402 27.6445V29.7476H84.4977V27.6445ZM89.7151 13.6319H86.1966V11H89.7151V13.6319Z" fill="white"/>
<path d="M98.0895 18.8596L96.8604 19.0879L98.5835 24.9045L98.8124 26.1303H98.8847L99.1378 24.9045L100.837 19.0999L99.5836 18.8596V16.7445H105.5V18.8596L104.367 19.0398L100.523 29.7476H97.1617L93.3058 19.0398L92.1732 18.8596V16.7445H98.0895V18.8596Z" fill="white"/>
<path d="M112.705 30C110.826 30 109.324 29.3991 108.199 28.1973C107.074 26.9956 106.512 25.4693 106.512 23.6186V23.1379C106.512 21.207 107.042 19.6167 108.103 18.3669C109.171 17.117 110.601 16.4961 112.392 16.5041C114.151 16.5041 115.517 17.0329 116.489 18.0904C117.461 19.148 117.947 20.5781 117.947 22.3808V24.2916H110.163L110.139 24.3637C110.203 25.221 110.488 25.926 110.994 26.4788C111.509 27.0316 112.203 27.308 113.079 27.308C113.858 27.308 114.505 27.2319 115.019 27.0797C115.533 26.9195 116.095 26.6711 116.706 26.3346L117.658 28.4978C117.12 28.9224 116.421 29.2789 115.561 29.5674C114.71 29.8558 113.758 30 112.705 30ZM112.392 19.2081C111.742 19.2081 111.227 19.4565 110.85 19.9532C110.472 20.4499 110.239 21.1029 110.151 21.9121L110.187 21.9722H114.501V21.6597C114.501 20.9146 114.324 20.3217 113.971 19.8811C113.625 19.4324 113.099 19.2081 112.392 19.2081Z" fill="white"/>
<path d="M119.887 27.6445L121.574 27.284V19.2201L119.706 18.8596V16.7445H124.851L125.008 18.6433C125.313 17.9703 125.707 17.4455 126.189 17.0689C126.671 16.6924 127.229 16.5041 127.864 16.5041C128.048 16.5041 128.241 16.5201 128.442 16.5522C128.651 16.5762 128.824 16.6083 128.96 16.6483L128.587 19.845L127.141 19.809C126.627 19.809 126.201 19.9091 125.864 20.1094C125.526 20.3097 125.269 20.5941 125.092 20.9627V27.284L126.779 27.6445V29.7476H119.887V27.6445Z" fill="white"/>
<path d="M140.648 21.2151H138.287L137.913 19.5927C137.672 19.4004 137.367 19.2401 136.997 19.112C136.636 18.9838 136.234 18.9197 135.792 18.9197C135.174 18.9197 134.684 19.0599 134.322 19.3403C133.961 19.6127 133.78 19.9572 133.78 20.3738C133.78 20.7664 133.953 21.0949 134.298 21.3593C134.644 21.6156 135.334 21.844 136.371 22.0443C137.985 22.3647 139.182 22.8374 139.961 23.4624C140.741 24.0793 141.13 24.9325 141.13 26.0221C141.13 27.1919 140.624 28.1493 139.612 28.8944C138.608 29.6315 137.282 30 135.636 30C134.632 30 133.708 29.8558 132.864 29.5674C132.029 29.2709 131.286 28.8503 130.635 28.3055L130.599 25.3852H133.057L133.539 27.0797C133.748 27.256 134.033 27.3882 134.395 27.4763C134.756 27.5564 135.134 27.5965 135.527 27.5965C136.242 27.5965 136.784 27.4683 137.154 27.2119C137.531 26.9555 137.72 26.607 137.72 26.1664C137.72 25.7818 137.531 25.4493 137.154 25.1689C136.776 24.8885 136.081 24.6401 135.069 24.4238C133.535 24.1113 132.374 23.6506 131.587 23.0417C130.808 22.4248 130.418 21.5876 130.418 20.53C130.418 19.4404 130.868 18.5031 131.768 17.7179C132.667 16.9247 133.949 16.5281 135.612 16.5281C136.624 16.5281 137.58 16.6643 138.479 16.9367C139.387 17.2092 140.098 17.5577 140.612 17.9823L140.648 21.2151Z" fill="white"/>
<path d="M151.011 29.7476C150.914 29.5313 150.83 29.311 150.758 29.0867C150.685 28.8543 150.629 28.622 150.589 28.3896C150.171 28.8703 149.661 29.2589 149.059 29.5553C148.464 29.8518 147.782 30 147.01 30C145.733 30 144.717 29.6555 143.962 28.9665C143.215 28.2694 142.841 27.3241 142.841 26.1303C142.841 24.9125 143.331 23.9711 144.311 23.3061C145.291 22.6412 146.729 22.3087 148.625 22.3087H150.42V21.0348C150.42 20.4099 150.24 19.9252 149.878 19.5806C149.517 19.2361 148.982 19.0639 148.276 19.0639C147.874 19.0639 147.516 19.112 147.203 19.2081C146.89 19.2962 146.637 19.4044 146.444 19.5326L146.215 20.9266H143.564L143.576 18.0424C144.219 17.6097 144.954 17.2452 145.781 16.9488C146.617 16.6523 147.524 16.5041 148.504 16.5041C150.119 16.5041 151.428 16.9007 152.433 17.6939C153.445 18.479 153.951 19.6007 153.951 21.0588V26.4307C153.951 26.631 153.951 26.8193 153.951 26.9956C153.959 27.1718 153.975 27.3401 153.999 27.5003L155.071 27.6445V29.7476H151.011ZM147.962 27.4042C148.492 27.4042 148.974 27.292 149.408 27.0677C149.842 26.8353 150.179 26.5469 150.42 26.2024V24.2195H148.625C147.878 24.2195 147.312 24.3957 146.926 24.7483C146.54 25.0928 146.348 25.5094 146.348 25.9981C146.348 26.4388 146.488 26.7833 146.769 27.0316C147.059 27.28 147.456 27.4042 147.962 27.4042Z" fill="white"/>
<path d="M155.903 13.1151V11H161.301V27.284L163 27.6445V29.7476H156.084V27.6445L157.783 27.284V13.4756L155.903 13.1151Z" fill="white"/>
<path fill-rule="evenodd" clip-rule="evenodd" d="M19.521 40C30.3021 40 39.0419 31.0457 39.0419 20C39.0419 8.9543 30.3021 0 19.521 0C8.73983 0 0 8.9543 0 20C0 31.0457 8.73983 40 19.521 40Z" fill="white"/>
<mask id="mask0" mask-type="alpha" maskUnits="userSpaceOnUse" x="0" y="0" width="40" height="40">
<path fill-rule="evenodd" clip-rule="evenodd" d="M20 40C31.0457 40 40 31.0457 40 20C40 8.9543 31.0457 0 20 0C8.9543 0 0 8.9543 0 20C0 31.0457 8.9543 40 20 40Z" fill="white"/>
</mask>
<g mask="url(#mask0)">
<path d="M1.87961 27.1313C2.50776 27.1313 3.06746 27.0246 3.55871 26.8112C4.05801 26.5978 4.47677 26.2982 4.81501 25.9124C5.15324 25.5267 5.41095 25.0588 5.58812 24.5089C5.77334 23.959 5.86595 23.3434 5.86595 22.6621V12H9.11543V22.6621C9.11543 23.7209 8.94631 24.7018 8.60807 25.6046C8.27789 26.4993 7.79873 27.275 7.17058 27.9316C6.55048 28.58 5.79348 29.0889 4.89957 29.4583C4.00566 29.8194 2.99901 30 1.87961 30C0.75216 30 -0.258519 29.8194 -1.15243 29.4583C-2.04633 29.0889 -2.80736 28.58 -3.43551 27.9316C-4.05561 27.275 -4.53478 26.4993 -4.87301 25.6046C-5.2032 24.7018 -5.36829 23.7209 -5.36829 22.6621V12H-2.11881V22.6498C-2.11881 23.3311 -2.03023 23.9466 -1.85306 24.4966C-1.66783 25.0465 -1.4061 25.5185 -1.06787 25.9124C-0.721579 26.2982 -0.302812 26.5978 0.188435 26.8112C0.687734 27.0246 1.25146 27.1313 1.87961 27.1313Z" fill="#4592FF"/>
<path d="M27.5055 12V29.803H25.8384C25.5807 29.803 25.3633 29.762 25.1861 29.6799C25.017 29.5896 24.8519 29.4419 24.6909 29.2367L15.5706 17.368C15.6189 17.9097 15.6431 18.4104 15.6431 18.87V29.803H12.7801V12H14.4834C14.6203 12 14.7371 12.0082 14.8337 12.0246C14.9384 12.0328 15.027 12.0575 15.0995 12.0985C15.18 12.1313 15.2565 12.1847 15.329 12.2586C15.4015 12.3242 15.482 12.4145 15.5706 12.5294L24.7271 24.4473C24.7029 24.1601 24.6828 23.8769 24.6667 23.5978C24.6506 23.3187 24.6425 23.0602 24.6425 22.8222V12H27.5055Z" fill="#4592FF"/>
<path d="M46.3623 12L39.3076 29.803H36.3722L29.3176 12H31.9269C32.2087 12 32.4382 12.0698 32.6154 12.2093C32.7926 12.3488 32.9255 12.5294 33.014 12.751L37.1333 23.6101C37.2702 23.9631 37.399 24.3529 37.5198 24.7798C37.6487 25.1984 37.7695 25.6375 37.8822 26.0971C37.9789 25.6375 38.0835 25.1984 38.1963 24.7798C38.309 24.3529 38.4339 23.9631 38.5708 23.6101L42.6658 12.751C42.7303 12.5622 42.8551 12.3899 43.0403 12.2339C43.2336 12.078 43.4671 12 43.7409 12H46.3623Z" fill="#4592FF"/>
</g>
</svg>

<svg width="163" height="40" fill="none" xmlns="http://www.w3.org/2000/svg"><path d="M57.266 12.25v2.115l-1.88.36v9.134c0 1.154.31 2.019.928 2.596.627.569 1.482.853 2.566.853 1.101 0 1.964-.284 2.591-.853.627-.57.94-1.434.94-2.596v-9.134l-1.868-.36V12.25h7.266v2.115l-1.88.36v9.134c0 1.963-.65 3.477-1.952 4.543C62.684 29.467 60.985 30 58.881 30c-2.097 0-3.792-.533-5.085-1.598-1.286-1.066-1.928-2.58-1.928-4.543v-9.134L50 14.366V12.25h7.266zM68.749 27.645l1.687-.361V19.22l-1.868-.36v-2.116h5.145l.157 1.863a4.764 4.764 0 0 1 1.603-1.55c.634-.369 1.345-.553 2.132-.553 1.318 0 2.346.413 3.085 1.238.74.825 1.109 2.12 1.109 3.882v5.66l1.686.36v2.104h-6.723v-2.104l1.506-.36v-5.648c0-.874-.177-1.49-.53-1.851-.354-.369-.888-.553-1.603-.553-.466 0-.883.096-1.253.289-.37.184-.679.448-.928.793v6.97l1.422.36v2.104H68.75v-2.104zM84.498 27.645l1.699-.361V19.22l-1.88-.36v-2.116h5.398v10.54l1.687.36v2.104h-6.904v-2.104zm5.217-14.013h-3.518V11h3.518v2.632zM98.09 18.86l-1.23.228 1.724 5.816.228 1.226h.073l.253-1.226 1.699-5.804-1.253-.24v-2.116h5.916v2.116l-1.133.18-3.844 10.708h-3.361L93.306 19.04l-1.133-.18v-2.116h5.916v2.116zM112.705 30c-1.879 0-3.381-.6-4.506-1.803-1.125-1.201-1.687-2.728-1.687-4.578v-.481c0-1.931.53-3.521 1.591-4.771 1.068-1.25 2.498-1.87 4.289-1.863 1.759 0 3.125.529 4.097 1.586.972 1.058 1.458 2.488 1.458 4.29v1.912h-7.784l-.024.072c.064.857.349 1.562.855 2.115.515.553 1.209.829 2.085.829.779 0 1.426-.076 1.94-.228a9.27 9.27 0 0 0 1.687-.745l.952 2.163c-.538.424-1.237.78-2.097 1.07-.851.288-1.803.432-2.856.432zm-.313-10.792c-.65 0-1.165.248-1.542.745-.378.497-.611 1.15-.699 1.96l.036.06h4.314v-.313c0-.745-.177-1.338-.53-1.779-.346-.449-.872-.673-1.579-.673zM119.887 27.645l1.687-.361V19.22l-1.868-.36v-2.116h5.145l.157 1.9c.305-.674.699-1.198 1.181-1.575a2.643 2.643 0 0 1 1.675-.565c.184 0 .377.016.578.048.209.024.382.056.518.096l-.373 3.197-1.446-.036c-.514 0-.94.1-1.277.3-.338.2-.595.485-.772.854v6.321l1.687.36v2.104h-6.892v-2.104zM140.648 21.215h-2.361l-.374-1.622a3.065 3.065 0 0 0-.916-.481 3.583 3.583 0 0 0-1.205-.192c-.618 0-1.108.14-1.47.42-.361.273-.542.617-.542 1.034 0 .392.173.72.518.985.346.257 1.036.485 2.073.685 1.614.32 2.811.793 3.59 1.418.78.617 1.169 1.47 1.169 2.56 0 1.17-.506 2.127-1.518 2.872-1.004.738-2.33 1.106-3.976 1.106-1.004 0-1.928-.144-2.772-.433a7.187 7.187 0 0 1-2.229-1.262l-.036-2.92h2.458l.482 1.695c.209.176.494.308.856.396.361.08.739.12 1.132.12.715 0 1.257-.128 1.627-.384.377-.256.566-.605.566-1.046 0-.384-.189-.717-.566-.997-.378-.28-1.073-.529-2.085-.745-1.534-.313-2.695-.773-3.482-1.382-.779-.617-1.169-1.454-1.169-2.512 0-1.09.45-2.027 1.35-2.812.899-.793 2.181-1.19 3.844-1.19 1.012 0 1.968.136 2.867.409.908.272 1.619.62 2.133 1.045l.036 3.233zM151.011 29.748a6.374 6.374 0 0 1-.253-.661 5.353 5.353 0 0 1-.169-.697c-.418.48-.928.869-1.53 1.165-.595.297-1.277.445-2.049.445-1.277 0-2.293-.345-3.048-1.034-.747-.697-1.121-1.642-1.121-2.836 0-1.217.49-2.159 1.47-2.824s2.418-.997 4.314-.997h1.795v-1.274c0-.625-.18-1.11-.542-1.454-.361-.345-.896-.517-1.602-.517-.402 0-.76.048-1.073.144a2.698 2.698 0 0 0-.759.325l-.229 1.394h-2.651l.012-2.885a9.934 9.934 0 0 1 2.205-1.093 8.088 8.088 0 0 1 2.723-.445c1.615 0 2.924.397 3.929 1.19 1.012.785 1.518 1.907 1.518 3.365V26.996c.008.176.024.344.048.504l1.072.145v2.103h-4.06zm-3.049-2.344c.53 0 1.012-.112 1.446-.336.434-.233.771-.521 1.012-.866V24.22h-1.795c-.747 0-1.313.177-1.699.53-.386.344-.578.76-.578 1.25 0 .44.14.784.421 1.033.29.248.687.372 1.193.372zM155.903 13.115V11h5.398v16.284l1.699.36v2.104h-6.916v-2.104l1.699-.36V13.476l-1.88-.36z" fill="#fff"/><path fill-rule="evenodd" clip-rule="evenodd" d="M19.521 40c10.781 0 19.52-8.954 19.52-20S30.303 0 19.522 0C8.74 0 0 8.954 0 20s8.74 20 19.521 20z" fill="#fff"/><mask id="prefix__a" mask-type="alpha" maskUnits="userSpaceOnUse" x="0" y="0" width="40" height="40"><path fill-rule="evenodd" clip-rule="evenodd" d="M20 40c11.046 0 20-8.954 20-20S31.046 0 20 0 0 8.954 0 20s8.954 20 20 20z" fill="#fff"/></mask><g mask="url(#prefix__a)" fill="#4592FF"><path d="M1.88 27.131c.628 0 1.187-.106 1.679-.32.499-.213.918-.513 1.256-.899.338-.385.596-.853.773-1.403.185-.55.278-1.166.278-1.847V12h3.25v10.662c0 1.059-.17 2.04-.508 2.943-.33.894-.81 1.67-1.437 2.327A6.565 6.565 0 0 1 4.9 29.458c-.894.361-1.901.542-3.02.542-1.128 0-2.139-.18-3.032-.542a6.692 6.692 0 0 1-2.284-1.526 6.9 6.9 0 0 1-1.437-2.327c-.33-.903-.495-1.884-.495-2.943V12h3.25v10.65c0 .681.088 1.297.265 1.847.185.55.447 1.021.785 1.415.346.386.765.686 1.256.9.5.213 1.063.32 1.692.32zM27.506 12v17.803h-1.668c-.257 0-.475-.041-.652-.123a1.624 1.624 0 0 1-.495-.443l-9.12-11.869c.048.542.072 1.042.072 1.502v10.933H12.78V12h1.703c.137 0 .254.008.35.025a.636.636 0 0 1 .267.073c.08.033.157.087.229.16.072.066.153.157.242.271l9.156 11.918c-.024-.287-.044-.57-.06-.85-.016-.278-.025-.537-.025-.775V12h2.864zM46.362 12l-7.054 17.803h-2.936L29.318 12h2.609c.282 0 .511.07.688.21.178.139.31.32.399.541l4.12 10.86c.136.352.265.742.386 1.169.129.418.25.857.362 1.317.097-.46.202-.899.314-1.317.113-.427.238-.817.375-1.17l4.095-10.859a1.18 1.18 0 0 1 .374-.517 1.08 1.08 0 0 1 .7-.234h2.622z"/></g></svg>
